icons/1_Primary/Ripio.svg

<svg width="1024" height="1024" fill="none" xmlns="http://www.w3.org/2000/svg"><g clip-path="url(#a)"><path d="M512 1024c282.77 0 512-229.23 512-512S794.77 0 512 0 0 229.23 0 512s229.23 512 512 512Z" fill="#8C72BD"/><path d="M247.68 467.28h.53c9.07-16.45 24.79-23.84 43.35-23.84h9.18v45.78c-6.54-3.69-12.87-4.43-20.15-4.43-26.47 0-33 17.51-33 40.61v54.11H200V445.34h47.68v21.94Zm77.74-21.94H373v134.27h-47.59l.01-134.27Zm131.11 15.19h.47c8.65-13.29 24.89-19.62 40.61-19.62 40.08 0 67.72 33.54 67.72 71.94 0 38.71-27.42 71.2-67.29 71.2-15.4 0-31.43-5.48-41.56-17.3v73.52l-47.68 20.15V445.34h47.68l.05 15.19Zm-1.58 52c0 17 11.29 30.06 30.59 30.06s30.59-13.08 30.59-30.06c0-16.45-11.29-30.38-30.59-30.38s-30.59 13.92-30.59 30.38Zm135.75-67.19h47.68v134.27h-47.69l.01-134.27ZM824 512.53c0 45.57-37.66 71.41-80.9 71.41-42.93 0-80.9-25.63-80.9-71.41s37.66-71.72 80.9-71.72c43.24 0 80.9 25.94 80.9 71.72Zm-111.49 0c0 17 11.29 30.06 30.59 30.06s30.59-13.08 30.59-30.06c0-16.45-11.29-30.38-30.59-30.38s-30.59 13.92-30.59 30.38Zm-386-130.16 46.62-18.77L373 408l-46.52 18.77.03-44.4Zm264.75 0 46.62-18.77-.15 44.4-46.52 18.77.05-44.4Z" fill="#fff"/></g><defs><clipPath id="a"><path fill="#fff" d="M0 0h1024v1024H0z"/></clipPath></defs></svg>

<svg width="1024" height="1024" viewBox="0 0 1024 1024" fill="none" xmlns="http://www.w3.org/2000/svg">
<g clip-path="url(#clip0_2_3345)">
<path d="M512 1024C794.77 1024 1024 794.77 1024 512C1024 229.23 794.77 0 512 0C229.23 0 0 229.23 0 512C0 794.77 229.23 1024 512 1024Z" fill="#8C72BD"/>
<path d="M247.68 467.28H248.21C257.28 450.83 273 443.44 291.56 443.44H300.74V489.22C294.2 485.53 287.87 484.79 280.59 484.79C254.12 484.79 247.59 502.3 247.59 525.4V579.51H200V445.34H247.68V467.28ZM325.42 445.34H373V579.61H325.41L325.42 445.34ZM456.53 460.53H457C465.65 447.24 481.89 440.91 497.61 440.91C537.69 440.91 565.33 474.45 565.33 512.85C565.33 551.56 537.91 584.05 498.04 584.05C482.64 584.05 466.61 578.57 456.48 566.75V640.27L408.8 660.42V445.34H456.48L456.53 460.53ZM454.95 512.53C454.95 529.53 466.24 542.59 485.54 542.59C504.84 542.59 516.13 529.51 516.13 512.53C516.13 496.08 504.84 482.15 485.54 482.15C466.24 482.15 454.95 496.07 454.95 512.53ZM590.7 445.34H638.38V579.61H590.69L590.7 445.34ZM824 512.53C824 558.1 786.34 583.94 743.1 583.94C700.17 583.94 662.2 558.31 662.2 512.53C662.2 466.75 699.86 440.81 743.1 440.81C786.34 440.81 824 466.75 824 512.53ZM712.51 512.53C712.51 529.53 723.8 542.59 743.1 542.59C762.4 542.59 773.69 529.51 773.69 512.53C773.69 496.08 762.4 482.15 743.1 482.15C723.8 482.15 712.51 496.07 712.51 512.53ZM326.51 382.37L373.13 363.6L373 408L326.48 426.77L326.51 382.37ZM591.26 382.37L637.88 363.6L637.73 408L591.21 426.77L591.26 382.37Z" fill="white"/>
</g>
<defs>
<clipPath id="clip0_2_3345">
<rect width="1024" height="1024" fill="white"/>
</clipPath>
</defs>
</svg>
